storage/app/icons/phosphoricons/regular/replit-logo.svg

<svg xmlns="http://www.w3.org/2000/svg" fill="currentColor" viewBox="0 0 256 256"><path d="M216 88h-64V40a16 16 0 0 0-16-16H72a16 16 0 0 0-16 16v48a16 16 0 0 0 16 16h64v48H72a16 16 0 0 0-16 16v48a16 16 0 0 0 16 16h64a16 16 0 0 0 16-16v-48h64a16 16 0 0 0 16-16v-48a16 16 0 0 0-16-16m-80 128H72v-48h64Zm0-176v48H72V40zm80 112h-64v-48h64Z"/></svg>

<svg xmlns="http://www.w3.org/2000/svg" viewBox="0 0 256 256" fill="currentColor"><path d="M216,88H152V40a16,16,0,0,0-16-16H72A16,16,0,0,0,56,40V88a16,16,0,0,0,16,16h64v48H72a16,16,0,0,0-16,16v48a16,16,0,0,0,16,16h64a16,16,0,0,0,16-16V168h64a16,16,0,0,0,16-16V104A16,16,0,0,0,216,88ZM136,216H72V168h64Zm0-176V88H72V40h64Zm80,112H152V104h64Z"/></svg>
